thonk-trans.svg

<svg height="104pt" viewBox="0 0 128 104" width="128pt" xmlns="http://www.w3.org/2000/svg"><g fill="#664500"><path d="m42.43 0h3.12c2.11.74 4.12 1.81 5.72 3.4 4.28 5.45 12.26 9.52 11.9 17.41-1.05 4.09-6.02 7.04-9.92 4.79-2.17-.85-3-3.21-4.44-4.84-1.79-2.08-3.8-3.96-5.94-5.66-4.65 1.9-9.31 3.77-13.92 5.74-2.85 1.46-6.2 1.85-8.99.02-3.09-2.56-3.61-7.59-.55-10.37 3.76-3.2 8.95-3.8 13.1-6.34 3.46-.99 6.55-2.91 9.92-4.15z"/><path d="m35.17 20.85c2.87-3.45 8.39-3.46 11.2.07 2.23 3.32 1.43 8.36-2.24 10.27-3.68 2.42-9.06-.04-10.05-4.21-.74-2.09.11-4.28 1.09-6.13z"/><path d="m62.43 29.68c8.57-.74 17.14-1.54 25.6-3.08 3.55-.71 8.13-.05 9.75 3.65 2.33 3.79-.56 9.02-4.75 9.78-2.23.73-5.1-.28-6.99 1.14 1.05 4.08-1.76 8.82-6.06 9.26-4.33.61-8.16-3.57-7.9-7.78-4.28.31-9.25 2.14-12.9-1.06-4.04-3.49-2.08-11.05 3.25-11.91z"/><path d="m31.24 50.01c.02-4.21 4.54-7.59 8.6-6.52 20 5.01 38.93 13.43 58.69 19.2 5.9 2.16 12.03 3.6 17.9 5.83 4.17 2.09 5.14 8.41 1.26 11.29-3.56 3.3-8.37.71-12.3-.36-17.48-5.19-34.61-11.45-51.84-17.39-5.81-1.89-11.59-3.97-17.61-5.12-2.85-.96-5-3.87-4.7-6.93z"/></g><path d="m6.64 20.76c5.85-8.53 15.26-15.96 25.87-16.61-4.15 2.54-9.34 3.14-13.1 6.34-3.06 2.78-2.54 7.81.55 10.37-4.44-.17-8.88-.01-13.32-.1z" fill="#5bcefa"/><path d="m51.27 3.4c5.09-.2 10.16.66 15.17 1.46 8.26 2.06 16.66 3.87 24.48 7.35 4.43 1.96 7.92 5.42 11.61 8.47-13.12.26-26.24 0-39.36.13.36-7.89-7.62-11.96-11.9-17.41z" fill="#5bcefa"/><path d="m28.95 20.84c4.61-1.97 9.27-3.84 13.92-5.74 2.14 1.7 4.15 3.58 5.94 5.66-.61.04-1.83.12-2.44.16-2.81-3.53-8.33-3.52-11.2-.07-2.08-.04-4.15-.11-6.22-.01z" fill="#5bcefa"/><path d="m82.08 86.99c2.69.02 4.7-1.92 6.24-3.91 11.36.36 22.75-.04 34.12.2-5.2 6.79-14.44 6.93-21.31 11.11-8.18 4.67-16.97 8.44-26.39 9.61h-9.58c-3.86-.46-7.67-1.34-11.31-2.66 2.91-.73 6.24-2.12 6.98-5.39 1.06-2.73-.39-5.47-1.93-7.67 7.75.16 15.45-.85 23.18-1.29z" fill="#5bcefa"/><path d="m6.64 20.76c4.44.09 8.88-.07 13.32.1 2.79 1.83 6.14 1.44 8.99-.02 2.07-.1 4.14-.03 6.22.01-.98 1.85-1.83 4.04-1.09 6.13.99 4.17 6.37 6.63 10.05 4.21 3.67-1.91 4.47-6.95 2.24-10.27l2.44-.16c1.44 1.63 2.27 3.99 4.44 4.84 3.9 2.25 8.87-.7 9.92-4.79 13.12-.13 26.24.13 39.36-.13 6.67 6.26 13.17 12.85 18.25 20.5-3.89.74-7.87.26-11.8.38-7.64-.13-15.32.33-22.94-.39 1.89-1.42 4.76-.41 6.99-1.14 4.19-.76 7.08-5.99 4.75-9.78-1.62-3.7-6.2-4.36-9.75-3.65-8.46 1.54-17.03 2.34-25.6 3.08-5.33.86-7.29 8.42-3.25 11.91-19.73.06-39.45.02-59.18.01v-1.33c1-4.42 1.28-9.11 3.45-13.18 1.12-2.08 2.02-4.28 3.19-6.33z" fill="#f5a9b8"/><path d="m10.77 62.47c4.02-.14 8.06-.03 12.09-.15-1.02 4.23 2.68 7.6 2.57 11.73-.61 1.42-1.48 2.7-2.23 4.04-4.05-5.29-7.72-10.88-12.43-15.62z" fill="#f5a9b8"/><path d="m53.55 62.06c17.23 5.94 34.36 12.2 51.84 17.39 3.93 1.07 8.74 3.66 12.3.36 3.88-2.88 2.91-9.2-1.26-11.29-5.87-2.23-12-3.67-17.9-5.83 9.64-.68 19.32-.1 28.97-.34.16 1.28.34 2.56.5 3.85v2.65c-.61 5.16-2.19 10.38-5.56 14.43-11.37-.24-22.76.16-34.12-.2 1.79-4.56-1.35-9.93-6.32-10.15-13.98 1.35-28.03 1.47-42.06 2.01-.52-4.2-1.59-8.32-3.05-12.29 5.53-.71 11.21.44 16.66-.59z" fill="#f5a9b8"/><path d="m86.04 41.17c7.62.72 15.3.26 22.94.39 3.93-.12 7.91.36 11.8-.38 4.48 6.17 5.24 13.93 6.72 21.17-9.65.24-19.33-.34-28.97.34-19.76-5.77-38.69-14.19-58.69-19.2-4.06-1.07-8.58 2.31-8.6 6.52-.3 3.06 1.85 5.97 4.7 6.93 6.02 1.15 11.8 3.23 17.61 5.12-5.45 1.03-11.13-.12-16.66.59-1.25-2.76-3.63-5.48-6.91-5.43-3.25-.23-6.11 2.12-7.12 5.1-4.03.12-8.07.01-12.09.15-4.63-5.14-9.05-10.81-10.77-17.64v-3.23c19.73.01 39.45.05 59.18-.01 3.65 3.2 8.62 1.37 12.9 1.06-.26 4.21 3.57 8.39 7.9 7.78 4.3-.44 7.11-5.18 6.06-9.26z" fill="#fff"/><path d="m22.86 62.32c1.01-2.98 3.87-5.33 7.12-5.1 3.28-.05 5.66 2.67 6.91 5.43 1.46 3.97 2.53 8.09 3.05 12.29 14.03-.54 28.08-.66 42.06-2.01 4.97.22 8.11 5.59 6.32 10.15-1.54 1.99-3.55 3.93-6.24 3.91-7.73.44-15.43 1.45-23.18 1.29 1.54 2.2 2.99 4.94 1.93 7.67-.74 3.27-4.07 4.66-6.98 5.39-3.26-1.12-6.09-3.12-8.79-5.2-2.34 1.51-5.42 2.28-8.01.9-2.59-1.48-5.22-2.89-7.98-4.02-5.48-2.43-7.8-9.46-5.87-14.93.75-1.34 1.62-2.62 2.23-4.04.11-4.13-3.59-7.5-2.57-11.73z" fill="#f5900c"/></svg>

<?xml version="1.0" encoding="UTF-8" ?>
<!DOCTYPE svg PUBLIC "-//W3C//DTD SVG 1.1//EN" "http://www.w3.org/Graphics/SVG/1.1/DTD/svg11.dtd">
<svg width="128pt" height="104pt" viewBox="0 0 128 104" version="1.1" xmlns="http://www.w3.org/2000/svg">
<g id="#664500ff">
<path fill="#664500" opacity="1.00" d=" M 42.43 0.00 L 45.55 0.00 C 47.66 0.74 49.67 1.81 51.27 3.40 C 55.55 8.85 63.53 12.92 63.17 20.81 C 62.12 24.90 57.15 27.85 53.25 25.60 C 51.08 24.75 50.25 22.39 48.81 20.76 C 47.02 18.68 45.01 16.80 42.87 15.10 C 38.22 17.00 33.56 18.87 28.95 20.84 C 26.10 22.30 22.75 22.69 19.96 20.86 C 16.87 18.30 16.35 13.27 19.41 10.49 C 23.17 7.29 28.36 6.69 32.51 4.15 C 35.97 3.16 39.06 1.24 42.43 0.00 Z" />
<path fill="#664500" opacity="1.00" d=" M 35.17 20.85 C 38.04 17.40 43.56 17.39 46.37 20.92 C 48.60 24.24 47.80 29.28 44.13 31.19 C 40.45 33.61 35.07 31.15 34.08 26.98 C 33.34 24.89 34.19 22.70 35.17 20.85 Z" />
<path fill="#664500" opacity="1.00" d=" M 62.43 29.68 C 71.00 28.94 79.57 28.14 88.03 26.60 C 91.58 25.89 96.16 26.55 97.78 30.25 C 100.11 34.04 97.22 39.27 93.03 40.03 C 90.80 40.76 87.93 39.75 86.04 41.17 C 87.09 45.25 84.28 49.99 79.98 50.43 C 75.65 51.04 71.82 46.86 72.08 42.65 C 67.80 42.96 62.83 44.79 59.18 41.59 C 55.14 38.10 57.10 30.54 62.43 29.68 Z" />
<path fill="#664500" opacity="1.00" d=" M 31.24 50.01 C 31.26 45.80 35.78 42.42 39.84 43.49 C 59.84 48.50 78.77 56.92 98.53 62.69 C 104.43 64.85 110.56 66.29 116.43 68.52 C 120.60 70.61 121.57 76.93 117.69 79.81 C 114.13 83.11 109.32 80.52 105.39 79.45 C 87.91 74.26 70.78 68.00 53.55 62.06 C 47.74 60.17 41.96 58.09 35.94 56.94 C 33.09 55.98 30.94 53.07 31.24 50.01 Z" />
</g>
<g id="#5bcefaff">
<path fill="#5bcefa" opacity="1.00" d=" M 6.64 20.76 C 12.49 12.23 21.90 4.80 32.51 4.15 C 28.36 6.69 23.17 7.29 19.41 10.49 C 16.35 13.27 16.87 18.30 19.96 20.86 C 15.52 20.69 11.08 20.85 6.64 20.76 Z" />
<path fill="#5bcefa" opacity="1.00" d=" M 51.27 3.40 C 56.36 3.20 61.43 4.06 66.44 4.86 C 74.70 6.92 83.10 8.73 90.92 12.21 C 95.35 14.17 98.84 17.63 102.53 20.68 C 89.41 20.94 76.29 20.68 63.17 20.81 C 63.53 12.92 55.55 8.85 51.27 3.40 Z" />
<path fill="#5bcefa" opacity="1.00" d=" M 28.95 20.84 C 33.56 18.87 38.22 17.00 42.87 15.10 C 45.01 16.80 47.02 18.68 48.81 20.76 C 48.20 20.80 46.98 20.88 46.37 20.92 C 43.56 17.39 38.04 17.40 35.17 20.85 C 33.09 20.81 31.02 20.74 28.95 20.84 Z" />
<path fill="#5bcefa" opacity="1.00" d=" M 82.08 86.99 C 84.77 87.01 86.78 85.07 88.32 83.08 C 99.68 83.44 111.07 83.04 122.44 83.28 C 117.24 90.07 108.00 90.21 101.13 94.39 C 92.95 99.06 84.16 102.83 74.74 104.00 L 65.16 104.00 C 61.30 103.54 57.49 102.66 53.85 101.34 C 56.76 100.61 60.09 99.22 60.83 95.95 C 61.89 93.22 60.44 90.48 58.90 88.28 C 66.65 88.44 74.35 87.43 82.08 86.99 Z" />
</g>
<g id="#f5a9b8ff">
<path fill="#f5a9b8" opacity="1.00" d=" M 6.64 20.76 C 11.08 20.85 15.52 20.69 19.96 20.86 C 22.75 22.69 26.10 22.30 28.95 20.84 C 31.02 20.74 33.09 20.81 35.17 20.85 C 34.19 22.70 33.34 24.89 34.08 26.98 C 35.07 31.15 40.45 33.61 44.13 31.19 C 47.80 29.28 48.60 24.24 46.37 20.92 C 46.98 20.88 48.20 20.80 48.81 20.76 C 50.25 22.39 51.08 24.75 53.25 25.60 C 57.15 27.85 62.12 24.90 63.17 20.81 C 76.29 20.68 89.41 20.94 102.53 20.68 C 109.20 26.94 115.70 33.53 120.78 41.18 C 116.89 41.92 112.91 41.44 108.98 41.56 C 101.34 41.43 93.66 41.89 86.04 41.17 C 87.93 39.75 90.80 40.76 93.03 40.03 C 97.22 39.27 100.11 34.04 97.78 30.25 C 96.16 26.55 91.58 25.89 88.03 26.60 C 79.57 28.14 71.00 28.94 62.43 29.68 C 57.10 30.54 55.14 38.10 59.18 41.59 C 39.45 41.65 19.73 41.61 0.00 41.60 L 0.00 40.27 C 1.00 35.85 1.28 31.16 3.45 27.09 C 4.57 25.01 5.47 22.81 6.64 20.76 Z" />
<path fill="#f5a9b8" opacity="1.00" d=" M 10.77 62.47 C 14.79 62.33 18.83 62.44 22.86 62.32 C 21.84 66.55 25.54 69.92 25.43 74.05 C 24.82 75.47 23.95 76.75 23.20 78.09 C 19.15 72.80 15.48 67.21 10.77 62.47 Z" />
<path fill="#f5a9b8" opacity="1.00" d=" M 53.55 62.06 C 70.78 68.00 87.91 74.26 105.39 79.45 C 109.32 80.52 114.13 83.11 117.69 79.81 C 121.57 76.93 120.60 70.61 116.43 68.52 C 110.56 66.29 104.43 64.85 98.53 62.69 C 108.17 62.01 117.85 62.59 127.50 62.35 C 127.66 63.63 127.84 64.91 128.00 66.20 L 128.00 68.85 C 127.39 74.01 125.81 79.23 122.44 83.28 C 111.07 83.04 99.68 83.44 88.32 83.08 C 90.11 78.52 86.97 73.15 82.00 72.93 C 68.02 74.28 53.97 74.40 39.94 74.94 C 39.42 70.74 38.35 66.62 36.89 62.65 C 42.42 61.94 48.10 63.09 53.55 62.06 Z" />
</g>
<g id="#ffffffff">
<path fill="#ffffff" opacity="1.00" d=" M 86.04 41.17 C 93.66 41.89 101.34 41.43 108.98 41.56 C 112.91 41.44 116.89 41.92 120.78 41.18 C 125.26 47.35 126.02 55.11 127.50 62.35 C 117.85 62.59 108.17 62.01 98.53 62.69 C 78.77 56.92 59.84 48.50 39.84 43.49 C 35.78 42.42 31.26 45.80 31.24 50.01 C 30.94 53.07 33.09 55.98 35.94 56.94 C 41.96 58.09 47.74 60.17 53.55 62.06 C 48.10 63.09 42.42 61.94 36.89 62.65 C 35.64 59.89 33.26 57.17 29.98 57.22 C 26.73 56.99 23.87 59.34 22.86 62.32 C 18.83 62.44 14.79 62.33 10.77 62.47 C 6.14 57.33 1.72 51.66 0.00 44.83 L 0.00 41.60 C 19.73 41.61 39.45 41.65 59.18 41.59 C 62.83 44.79 67.80 42.96 72.08 42.65 C 71.82 46.86 75.65 51.04 79.98 50.43 C 84.28 49.99 87.09 45.25 86.04 41.17 Z" />
</g>
<g id="#f5900cff">
<path fill="#f5900c" opacity="1.00" d=" M 22.86 62.32 C 23.87 59.34 26.73 56.99 29.98 57.22 C 33.26 57.17 35.64 59.89 36.89 62.65 C 38.35 66.62 39.42 70.74 39.94 74.94 C 53.97 74.40 68.02 74.28 82.00 72.93 C 86.97 73.15 90.11 78.52 88.32 83.08 C 86.78 85.07 84.77 87.01 82.08 86.99 C 74.35 87.43 66.65 88.44 58.90 88.28 C 60.44 90.48 61.89 93.22 60.83 95.95 C 60.09 99.22 56.76 100.61 53.85 101.34 C 50.59 100.22 47.76 98.22 45.06 96.14 C 42.72 97.65 39.64 98.42 37.05 97.04 C 34.46 95.56 31.83 94.15 29.07 93.02 C 23.59 90.59 21.27 83.56 23.20 78.09 C 23.95 76.75 24.82 75.47 25.43 74.05 C 25.54 69.92 21.84 66.55 22.86 62.32 Z" />
</g>
</svg>
